svg/300/outlined/airplane_ticket-fill.svg

<svg xmlns="http://www.w3.org/2000/svg" width="48" height="48" viewBox="0 -960 960 960"><path d="m351.077-331.924 361.077-98.307q15.461-4.615 23.653-14.846 8.193-10.231 3.577-25.692-4.23-15.462-16.653-21-12.424-5.538-26.885-1.923l-103 27.385L428.385-625.23l-46.231 10.461 101.077 177.538-113.692 30.616-51.616-41.846L293.539-440l57.538 108.076Zm451.229 151.923H157.694q-23.846 0-40.77-16.923-16.923-16.924-16.923-40.77v-126.459q37-12.616 60.731-43.847t23.731-72q0-40.769-23.731-72.5t-60.731-43.347v-126.459q0-23.846 16.923-40.77 16.924-16.923 40.77-16.923h644.612q23.846 0 40.77 16.923 16.923 16.924 16.923 40.77v484.612q0 23.846-16.923 40.77-16.924 16.923-40.77 16.923Z"/></svg>

<svg xmlns="http://www.w3.org/2000/svg" width="48" height="48" viewBox="0 -960 960 960"><path d="m351.08-331.92 361.07-98.31q15.46-4.62 23.66-14.85 8.19-10.23 3.57-25.69-4.23-15.46-16.65-21-12.42-5.54-26.88-1.92l-103 27.38-164.47-158.92-46.23 10.46 101.08 177.54-113.69 30.61-51.62-41.84-24.38 8.46 57.54 108.08ZM802.31-180H157.69q-23.84 0-40.77-16.92Q100-213.85 100-237.69v-126.46q37-12.62 60.73-43.85 23.73-31.23 23.73-72 0-40.77-23.73-72.5Q137-584.23 100-595.85v-126.46q0-23.84 16.92-40.77Q133.85-780 157.69-780h644.62q23.84 0 40.77 16.92Q860-746.15 860-722.31v484.62q0 23.84-16.92 40.77Q826.15-180 802.31-180Z"/></svg>
